Apricity Icons/16/panel/gpm-inhibit.svg

<svg xmlns="http://www.w3.org/2000/svg" width="16" height="16" version="1.1">
 <defs>
  <style id="current-color-scheme" type="text/css">
   .ColorScheme-Text { color:#dfdfdf; } .ColorScheme-Highlight { color:#4285f4; }
  </style>
 </defs>
 <path style="fill:currentColor" class="ColorScheme-Text" d="M 1.0195312 1 C -0.32982012 0.97408411 -0.3437201 3.0055241 1.0058594 2.9980469 L 1.0058594 13.988281 C 0.98681407 15.334124 3.0053831 15.337497 3.0019531 14.001953 L 2.9980469 14.001953 L 2.9980469 1.9707031 C 2.9816508 1.4332844 2.5475752 1.0000541 2.0058594 1 L 1.0195312 1 z M 3.9980469 2 L 3.9980469 12.988281 L 5.0039062 12.988281 L 5.0039062 14.261719 C 5.0039062 14.987815 5.7304688 14.986328 5.7304688 14.986328 L 6.0039062 14.986328 L 7.0039062 14.986328 L 7.0039062 12.988281 L 9.0019531 12.988281 L 9.0019531 14.982422 L 11.001953 14.982422 L 11.001953 12.988281 L 13.001953 12.988281 L 13.001953 14.984375 L 14 14.984375 L 14.273438 14.984375 C 14.273438 14.984375 15 14.985864 15 14.259766 L 15 12.988281 L 15.300781 12.988281 C 15.688444 12.988281 16 12.683516 16 12.302734 L 16 2.6855469 C 16 2.3047645 15.688444 2 15.300781 2 L 3.9980469 2 z M 9 4 L 11 4 L 11 6 L 9 6 L 9 4 z M 9 7 L 11 7 L 11 11 L 9 11 L 9 7 z"/>
</svg>

<svg xmlns="http://www.w3.org/2000/svg" width="16" height="16"><defs><style id="current-color-scheme" type="text/css"></style></defs><path d="M1.02 1C-.33.974-.344 3.006 1.006 2.998v10.99c-.02 1.346 2 1.35 1.996.014h-.004V1.971A.996.996 0 0 0 2.006 1H1.02zm2.978 1v10.988h1.006v1.274c0 .726.726.724.726.724h1.274v-1.998h1.998v1.994h2v-1.994h2v1.996h1.271s.727.002.727-.724v-1.272h.3a.69.69 0 0 0 .7-.685V2.686A.69.69 0 0 0 15.3 2H3.999zM9 4h2v2H9V4zm0 3h2v4H9V7z" fill="currentColor" color="#dfdfdf"/></svg>
